X:1
T:Lady Margaret and King William
M:4/2
L:1/4
K:Bb
 F F| F2 G A B B A B| c- B G2 F2 z F| G2 B2 c2 d2| c4- c z G- A| B2 A2 c- B G2|\
 F2 D2 B,2 C2| D D G2 F2 D2| C4 z2||
